itou/static/img/search-bg-right.svg

<svg width="112" height="178" viewBox="0 0 112 178" fill="none" xmlns="http://www.w3.org/2000/svg">
<path fill-rule="evenodd" clip-rule="evenodd" d="M60.7279 0.95531C59.775 0.95531 59 0.188211 59 -0.754187C59 -1.69659 59.775 -2.46368 60.7279 -2.46368C61.6809 -2.46368 62.4565 -1.69659 62.4565 -0.754187C62.4565 0.188211 61.6809 0.95531 60.7279 0.95531Z" fill="#000638"/>
<path fill-rule="evenodd" clip-rule="evenodd" d="M73.4019 0.95531C72.449 0.95531 71.674 0.188211 71.674 -0.754187C71.674 -1.69659 72.449 -2.46368 73.4019 -2.46368C74.3548 -2.46368 75.1305 -1.69659 75.1305 -0.754187C75.1305 0.188211 74.3548 0.95531 73.4019 0.95531Z" fill="#000638"/>
<path fill-rule="evenodd" clip-rule="evenodd" d="M85.4997 0.95531C84.5467 0.95531 83.7717 0.188211 83.7717 -0.754187C83.7717 -1.69659 84.5467 -2.46368 85.4997 -2.46368C86.4526 -2.46368 87.2282 -1.69659 87.2282 -0.754187C87.2282 0.188211 86.4526 0.95531 85.4997 0.95531Z" fill="#000638"/>
<path fill-rule="evenodd" clip-rule="evenodd" d="M98.1736 0.95531C97.2207 0.95531 96.4457 0.188211 96.4457 -0.754187C96.4457 -1.69659 97.2207 -2.46368 98.1736 -2.46368C99.1265 -2.46368 99.9022 -1.69659 99.9022 -0.754187C99.9022 0.188211 99.1265 0.95531 98.1736 0.95531Z" fill="#000638"/>
<path fill-rule="evenodd" clip-rule="evenodd" d="M110.271 0.95531C109.318 0.95531 108.543 0.188211 108.543 -0.754187C108.543 -1.69659 109.318 -2.46368 110.271 -2.46368C111.224 -2.46368 112 -1.69659 112 -0.754187C112 0.188211 111.224 0.95531 110.271 0.95531Z" fill="#000638"/>
<path fill-rule="evenodd" clip-rule="evenodd" d="M60.7279 12.9218C59.775 12.9218 59 12.1547 59 11.2123C59 10.2699 59.775 9.50281 60.7279 9.50281C61.6809 9.50281 62.4565 10.2699 62.4565 11.2123C62.4565 12.1547 61.6809 12.9218 60.7279 12.9218Z" fill="#000638"/>
<path fill-rule="evenodd" clip-rule="evenodd" d="M73.4019 12.9218C72.449 12.9218 71.674 12.1547 71.674 11.2123C71.674 10.2699 72.449 9.50281 73.4019 9.50281C74.3548 9.50281 75.1305 10.2699 75.1305 11.2123C75.1305 12.1547 74.3548 12.9218 73.4019 12.9218Z" fill="#000638"/>
<path fill-rule="evenodd" clip-rule="evenodd" d="M85.4997 12.9218C84.5467 12.9218 83.7717 12.1547 83.7717 11.2123C83.7717 10.2699 84.5467 9.50281 85.4997 9.50281C86.4526 9.50281 87.2282 10.2699 87.2282 11.2123C87.2282 12.1547 86.4526 12.9218 85.4997 12.9218Z" fill="#000638"/>
<path fill-rule="evenodd" clip-rule="evenodd" d="M98.1736 12.9218C97.2207 12.9218 96.4457 12.1547 96.4457 11.2123C96.4457 10.2699 97.2207 9.50281 98.1736 9.50281C99.1265 9.50281 99.9022 10.2699 99.9022 11.2123C99.9022 12.1547 99.1265 12.9218 98.1736 12.9218Z" fill="#000638"/>
<path fill-rule="evenodd" clip-rule="evenodd" d="M110.271 12.9218C109.318 12.9218 108.543 12.1547 108.543 11.2123C108.543 10.2699 109.318 9.50281 110.271 9.50281C111.224 9.50281 112 10.2699 112 11.2123C112 12.1547 111.224 12.9218 110.271 12.9218Z" fill="#000638"/>
<path fill-rule="evenodd" clip-rule="evenodd" d="M60.7279 25.4581C59.775 25.4581 59 24.691 59 23.7486C59 22.8062 59.775 22.0391 60.7279 22.0391C61.6809 22.0391 62.4565 22.8062 62.4565 23.7486C62.4565 24.691 61.6809 25.4581 60.7279 25.4581Z" fill="#000638"/>
<path fill-rule="evenodd" clip-rule="evenodd" d="M73.4019 25.4581C72.449 25.4581 71.674 24.691 71.674 23.7486C71.674 22.8062 72.449 22.0391 73.4019 22.0391C74.3548 22.0391 75.1305 22.8062 75.1305 23.7486C75.1305 24.691 74.3548 25.4581 73.4019 25.4581Z" fill="#000638"/>
<path fill-rule="evenodd" clip-rule="evenodd" d="M85.4997 25.4581C84.5467 25.4581 83.7717 24.691 83.7717 23.7486C83.7717 22.8062 84.5467 22.0391 85.4997 22.0391C86.4526 22.0391 87.2282 22.8062 87.2282 23.7486C87.2282 24.691 86.4526 25.4581 85.4997 25.4581Z" fill="#000638"/>
<path fill-rule="evenodd" clip-rule="evenodd" d="M98.1736 25.4581C97.2207 25.4581 96.4457 24.691 96.4457 23.7486C96.4457 22.8062 97.2207 22.0391 98.1736 22.0391C99.1265 22.0391 99.9022 22.8062 99.9022 23.7486C99.9022 24.691 99.1265 25.4581 98.1736 25.4581Z" fill="#000638"/>
<path fill-rule="evenodd" clip-rule="evenodd" d="M110.271 25.4581C109.318 25.4581 108.543 24.691 108.543 23.7486C108.543 22.8062 109.318 22.0391 110.271 22.0391C111.224 22.0391 112 22.8062 112 23.7486C112 24.691 111.224 25.4581 110.271 25.4581Z" fill="#000638"/>
<path fill-rule="evenodd" clip-rule="evenodd" d="M60.7279 37.9944C59.775 37.9944 59 37.2278 59 36.2853C59 35.3427 59.775 34.5754 60.7279 34.5754C61.6809 34.5754 62.4565 35.3427 62.4565 36.2853C62.4565 37.2278 61.6809 37.9944 60.7279 37.9944Z" fill="#000638"/>
<path fill-rule="evenodd" clip-rule="evenodd" d="M73.4019 37.9944C72.449 37.9944 71.674 37.2278 71.674 36.2853C71.674 35.3427 72.449 34.5754 73.4019 34.5754C74.3548 34.5754 75.1305 35.3427 75.1305 36.2853C75.1305 37.2278 74.3548 37.9944 73.4019 37.9944Z" fill="#000638"/>
<path fill-rule="evenodd" clip-rule="evenodd" d="M85.4997 37.9944C84.5467 37.9944 83.7717 37.2278 83.7717 36.2853C83.7717 35.3427 84.5467 34.5754 85.4997 34.5754C86.4526 34.5754 87.2282 35.3427 87.2282 36.2853C87.2282 37.2278 86.4526 37.9944 85.4997 37.9944Z" fill="#000638"/>
<path fill-rule="evenodd" clip-rule="evenodd" d="M98.1736 37.9944C97.2207 37.9944 96.4457 37.2278 96.4457 36.2853C96.4457 35.3427 97.2207 34.5754 98.1736 34.5754C99.1265 34.5754 99.9022 35.3427 99.9022 36.2853C99.9022 37.2278 99.1265 37.9944 98.1736 37.9944Z" fill="#000638"/>
<path fill-rule="evenodd" clip-rule="evenodd" d="M110.271 37.9944C109.318 37.9944 108.543 37.2278 108.543 36.2853C108.543 35.3427 109.318 34.5754 110.271 34.5754C111.224 34.5754 112 35.3427 112 36.2853C112 37.2278 111.224 37.9944 110.271 37.9944Z" fill="#000638"/>
<path fill-rule="evenodd" clip-rule="evenodd" d="M60.7279 49.9609C59.775 49.9609 59 49.1938 59 48.2514C59 47.309 59.775 46.5419 60.7279 46.5419C61.6809 46.5419 62.4565 47.309 62.4565 48.2514C62.4565 49.1938 61.6809 49.9609 60.7279 49.9609Z" fill="#000638"/>
<path fill-rule="evenodd" clip-rule="evenodd" d="M73.4019 49.9609C72.449 49.9609 71.674 49.1938 71.674 48.2514C71.674 47.309 72.449 46.5419 73.4019 46.5419C74.3548 46.5419 75.1305 47.309 75.1305 48.2514C75.1305 49.1938 74.3548 49.9609 73.4019 49.9609Z" fill="#000638"/>
<path fill-rule="evenodd" clip-rule="evenodd" d="M85.4997 49.9609C84.5467 49.9609 83.7717 49.1938 83.7717 48.2514C83.7717 47.309 84.5467 46.5419 85.4997 46.5419C86.4526 46.5419 87.2282 47.309 87.2282 48.2514C87.2282 49.1938 86.4526 49.9609 85.4997 49.9609Z" fill="#000638"/>
<path fill-rule="evenodd" clip-rule="evenodd" d="M98.1736 49.9609C97.2207 49.9609 96.4457 49.1938 96.4457 48.2514C96.4457 47.309 97.2207 46.5419 98.1736 46.5419C99.1265 46.5419 99.9022 47.309 99.9022 48.2514C99.9022 49.1938 99.1265 49.9609 98.1736 49.9609Z" fill="#000638"/>
<path fill-rule="evenodd" clip-rule="evenodd" d="M110.271 49.9609C109.318 49.9609 108.543 49.1938 108.543 48.2514C108.543 47.309 109.318 46.5419 110.271 46.5419C111.224 46.5419 112 47.309 112 48.2514C112 49.1938 111.224 49.9609 110.271 49.9609Z" fill="#000638"/>
<path fill-rule="evenodd" clip-rule="evenodd" d="M60.7279 62.4972C59.775 62.4972 59 61.7299 59 60.7874C59 59.8448 59.775 59.0782 60.7279 59.0782C61.6809 59.0782 62.4565 59.8448 62.4565 60.7874C62.4565 61.7299 61.6809 62.4972 60.7279 62.4972Z" fill="#000638"/>
<path fill-rule="evenodd" clip-rule="evenodd" d="M73.4019 62.4972C72.449 62.4972 71.674 61.7299 71.674 60.7874C71.674 59.8448 72.449 59.0782 73.4019 59.0782C74.3548 59.0782 75.1305 59.8448 75.1305 60.7874C75.1305 61.7299 74.3548 62.4972 73.4019 62.4972Z" fill="#000638"/>
<path fill-rule="evenodd" clip-rule="evenodd" d="M85.4997 62.4972C84.5467 62.4972 83.7717 61.7299 83.7717 60.7874C83.7717 59.8448 84.5467 59.0782 85.4997 59.0782C86.4526 59.0782 87.2282 59.8448 87.2282 60.7874C87.2282 61.7299 86.4526 62.4972 85.4997 62.4972Z" fill="#000638"/>
<path fill-rule="evenodd" clip-rule="evenodd" d="M98.1736 62.4972C97.2207 62.4972 96.4457 61.7299 96.4457 60.7874C96.4457 59.8448 97.2207 59.0782 98.1736 59.0782C99.1265 59.0782 99.9022 59.8448 99.9022 60.7874C99.9022 61.7299 99.1265 62.4972 98.1736 62.4972Z" fill="#000638"/>
<path fill-rule="evenodd" clip-rule="evenodd" d="M110.271 62.4972C109.318 62.4972 108.543 61.7299 108.543 60.7874C108.543 59.8448 109.318 59.0782 110.271 59.0782C111.224 59.0782 112 59.8448 112 60.7874C112 61.7299 111.224 62.4972 110.271 62.4972Z" fill="#000638"/>
<path fill-rule="evenodd" clip-rule="evenodd" d="M60.7279 74.4637C59.775 74.4637 59 73.6966 59 72.7542C59 71.8118 59.775 71.0447 60.7279 71.0447C61.6809 71.0447 62.4565 71.8118 62.4565 72.7542C62.4565 73.6966 61.6809 74.4637 60.7279 74.4637Z" fill="#000638"/>
<path fill-rule="evenodd" clip-rule="evenodd" d="M73.4019 74.4637C72.449 74.4637 71.674 73.6966 71.674 72.7542C71.674 71.8118 72.449 71.0447 73.4019 71.0447C74.3548 71.0447 75.1305 71.8118 75.1305 72.7542C75.1305 73.6966 74.3548 74.4637 73.4019 74.4637Z" fill="#000638"/>
<path fill-rule="evenodd" clip-rule="evenodd" d="M85.4997 74.4637C84.5467 74.4637 83.7717 73.6966 83.7717 72.7542C83.7717 71.8118 84.5467 71.0447 85.4997 71.0447C86.4526 71.0447 87.2282 71.8118 87.2282 72.7542C87.2282 73.6966 86.4526 74.4637 85.4997 74.4637Z" fill="#000638"/>
<path fill-rule="evenodd" clip-rule="evenodd" d="M98.1736 74.4637C97.2207 74.4637 96.4457 73.6966 96.4457 72.7542C96.4457 71.8118 97.2207 71.0447 98.1736 71.0447C99.1265 71.0447 99.9022 71.8118 99.9022 72.7542C99.9022 73.6966 99.1265 74.4637 98.1736 74.4637Z" fill="#000638"/>
<path fill-rule="evenodd" clip-rule="evenodd" d="M110.271 74.4637C109.318 74.4637 108.543 73.6966 108.543 72.7542C108.543 71.8118 109.318 71.0447 110.271 71.0447C111.224 71.0447 112 71.8118 112 72.7542C112 73.6966 111.224 74.4637 110.271 74.4637Z" fill="#000638"/>
<path fill-rule="evenodd" clip-rule="evenodd" d="M60.7279 87C59.775 87 59 86.2334 59 85.2908C59 84.3482 59.775 83.581 60.7279 83.581C61.6809 83.581 62.4565 84.3482 62.4565 85.2908C62.4565 86.2334 61.6809 87 60.7279 87Z" fill="#000638"/>
<path fill-rule="evenodd" clip-rule="evenodd" d="M73.4019 87C72.449 87 71.674 86.2334 71.674 85.2908C71.674 84.3482 72.449 83.581 73.4019 83.581C74.3548 83.581 75.1305 84.3482 75.1305 85.2908C75.1305 86.2334 74.3548 87 73.4019 87Z" fill="#000638"/>
<path fill-rule="evenodd" clip-rule="evenodd" d="M85.4997 87C84.5467 87 83.7717 86.2334 83.7717 85.2908C83.7717 84.3482 84.5467 83.581 85.4997 83.581C86.4526 83.581 87.2282 84.3482 87.2282 85.2908C87.2282 86.2334 86.4526 87 85.4997 87Z" fill="#000638"/>
<path fill-rule="evenodd" clip-rule="evenodd" d="M98.1736 87C97.2207 87 96.4457 86.2334 96.4457 85.2908C96.4457 84.3482 97.2207 83.581 98.1736 83.581C99.1265 83.581 99.9022 84.3482 99.9022 85.2908C99.9022 86.2334 99.1265 87 98.1736 87Z" fill="#000638"/>
<path fill-rule="evenodd" clip-rule="evenodd" d="M110.271 87C109.318 87 108.543 86.2334 108.543 85.2908C108.543 84.3482 109.318 83.581 110.271 83.581C111.224 83.581 112 84.3482 112 85.2908C112 86.2334 111.224 87 110.271 87Z" fill="#000638"/>
<path fill-rule="evenodd" clip-rule="evenodd" d="M43 158.35C43 169.029 51.6593 177.693 62.3465 177.693C73.0351 177.693 81.6929 169.029 81.6929 158.35C81.6929 147.664 73.0351 139 62.3465 139C51.6593 139 43 147.664 43 158.35ZM71.7051 158.35C71.7051 163.513 67.5167 167.701 62.3464 167.701C57.1762 167.701 52.9878 163.513 52.9878 158.35C52.9878 153.18 57.1762 148.992 62.3464 148.992C67.5167 148.992 71.7051 153.18 71.7051 158.35Z" fill="#007BFF"/>
<path fill-rule="evenodd" clip-rule="evenodd" d="M19 85.4997H12.5003V79H6.49968V85.4997H0V91.4993H6.49968V98H12.5003V91.4993H19V85.4997Z" fill="#007BFF"/>
</svg>

<svg width="112" height="178" fill="none" xmlns="http://www.w3.org/2000/svg"><path fill-rule="evenodd" clip-rule="evenodd" d="M60.73.96C59.78.96 59 .19 59-.75c0-.95.77-1.71 1.73-1.71.95 0 1.73.76 1.73 1.7 0 .95-.78 1.72-1.73 1.72ZM73.4.96c-.95 0-1.73-.77-1.73-1.71 0-.95.78-1.71 1.73-1.71s1.73.76 1.73 1.7c0 .95-.78 1.72-1.73 1.72ZM85.5.96c-.95 0-1.73-.77-1.73-1.71 0-.95.78-1.71 1.73-1.71s1.73.76 1.73 1.7c0 .95-.78 1.72-1.73 1.72ZM98.17.96c-.95 0-1.72-.77-1.72-1.71 0-.95.77-1.71 1.72-1.71.96 0 1.73.76 1.73 1.7 0 .95-.77 1.72-1.73 1.72ZM110.27.96c-.95 0-1.73-.77-1.73-1.71 0-.95.78-1.71 1.73-1.71S112-1.7 112-.76c0 .95-.78 1.72-1.73 1.72ZM60.73 12.92c-.95 0-1.73-.77-1.73-1.7 0-.95.77-1.72 1.73-1.72.95 0 1.73.77 1.73 1.71s-.78 1.71-1.73 1.71ZM73.4 12.92c-.95 0-1.73-.77-1.73-1.7 0-.95.78-1.72 1.73-1.72s1.73.77 1.73 1.71-.78 1.71-1.73 1.71ZM85.5 12.92c-.95 0-1.73-.77-1.73-1.7 0-.95.78-1.72 1.73-1.72s1.73.77 1.73 1.71-.78 1.71-1.73 1.71ZM98.17 12.92c-.95 0-1.72-.77-1.72-1.7a1.72 1.72 0 0 1 3.46 0c0 .93-.78 1.7-1.74 1.7ZM110.27 12.92c-.95 0-1.73-.77-1.73-1.7 0-.95.78-1.72 1.73-1.72s1.73.77 1.73 1.71-.78 1.71-1.73 1.71ZM60.73 25.46c-.95 0-1.73-.77-1.73-1.71s.77-1.71 1.73-1.71c.95 0 1.73.77 1.73 1.7 0 .95-.78 1.72-1.73 1.72ZM73.4 25.46c-.95 0-1.73-.77-1.73-1.71s.78-1.71 1.73-1.71 1.73.77 1.73 1.7c0 .95-.78 1.72-1.73 1.72ZM85.5 25.46c-.95 0-1.73-.77-1.73-1.71s.78-1.71 1.73-1.71 1.73.77 1.73 1.7c0 .95-.78 1.72-1.73 1.72ZM98.17 25.46c-.95 0-1.72-.77-1.72-1.71s.77-1.71 1.72-1.71c.96 0 1.73.77 1.73 1.7 0 .95-.77 1.72-1.73 1.72ZM110.27 25.46c-.95 0-1.73-.77-1.73-1.71s.78-1.71 1.73-1.71 1.73.77 1.73 1.7c0 .95-.78 1.72-1.73 1.72ZM60.73 38c-.95 0-1.73-.77-1.73-1.71 0-.95.77-1.71 1.73-1.71.95 0 1.73.76 1.73 1.7 0 .95-.78 1.71-1.73 1.71ZM73.4 38c-.95 0-1.73-.77-1.73-1.71 0-.95.78-1.71 1.73-1.71s1.73.76 1.73 1.7c0 .95-.78 1.71-1.73 1.71ZM85.5 38c-.95 0-1.73-.77-1.73-1.71 0-.95.78-1.71 1.73-1.71s1.73.76 1.73 1.7c0 .95-.78 1.71-1.73 1.71ZM98.17 38c-.95 0-1.72-.77-1.72-1.71 0-.95.77-1.71 1.72-1.71.96 0 1.73.76 1.73 1.7 0 .95-.77 1.71-1.73 1.71ZM110.27 38c-.95 0-1.73-.77-1.73-1.71 0-.95.78-1.71 1.73-1.71s1.73.76 1.73 1.7c0 .95-.78 1.71-1.73 1.71ZM60.73 49.96c-.95 0-1.73-.77-1.73-1.7 0-.95.77-1.72 1.73-1.72.95 0 1.73.77 1.73 1.71s-.78 1.71-1.73 1.71ZM73.4 49.96c-.95 0-1.73-.77-1.73-1.7 0-.95.78-1.72 1.73-1.72s1.73.77 1.73 1.71-.78 1.71-1.73 1.71ZM85.5 49.96c-.95 0-1.73-.77-1.73-1.7 0-.95.78-1.72 1.73-1.72s1.73.77 1.73 1.71-.78 1.71-1.73 1.71ZM98.17 49.96c-.95 0-1.72-.77-1.72-1.7a1.72 1.72 0 0 1 3.46 0c0 .93-.78 1.7-1.74 1.7ZM110.27 49.96c-.95 0-1.73-.77-1.73-1.7 0-.95.78-1.72 1.73-1.72s1.73.77 1.73 1.71-.78 1.71-1.73 1.71ZM60.73 62.5c-.95 0-1.73-.77-1.73-1.71 0-.95.77-1.71 1.73-1.71.95 0 1.73.76 1.73 1.7 0 .95-.78 1.72-1.73 1.72ZM73.4 62.5c-.95 0-1.73-.77-1.73-1.71 0-.95.78-1.71 1.73-1.71s1.73.76 1.73 1.7c0 .95-.78 1.72-1.73 1.72ZM85.5 62.5c-.95 0-1.73-.77-1.73-1.71 0-.95.78-1.71 1.73-1.71s1.73.76 1.73 1.7c0 .95-.78 1.72-1.73 1.72ZM98.17 62.5c-.95 0-1.72-.77-1.72-1.71 0-.95.77-1.71 1.72-1.71.96 0 1.73.76 1.73 1.7 0 .95-.77 1.72-1.73 1.72ZM110.27 62.5c-.95 0-1.73-.77-1.73-1.71 0-.95.78-1.71 1.73-1.71s1.73.76 1.73 1.7c0 .95-.78 1.72-1.73 1.72ZM60.73 74.46c-.95 0-1.73-.76-1.73-1.7 0-.95.77-1.72 1.73-1.72.95 0 1.73.77 1.73 1.71 0 .95-.78 1.71-1.73 1.71ZM73.4 74.46c-.95 0-1.73-.76-1.73-1.7 0-.95.78-1.72 1.73-1.72s1.73.77 1.73 1.71c0 .95-.78 1.71-1.73 1.71ZM85.5 74.46c-.95 0-1.73-.76-1.73-1.7 0-.95.78-1.72 1.73-1.72s1.73.77 1.73 1.71c0 .95-.78 1.71-1.73 1.71ZM98.17 74.46c-.95 0-1.72-.76-1.72-1.7a1.72 1.72 0 0 1 3.46 0c0 .94-.78 1.7-1.74 1.7ZM110.27 74.46c-.95 0-1.73-.76-1.73-1.7 0-.95.78-1.72 1.73-1.72s1.73.77 1.73 1.71c0 .95-.78 1.71-1.73 1.71ZM60.73 87c-.95 0-1.73-.77-1.73-1.7 0-.95.77-1.72 1.73-1.72.95 0 1.73.77 1.73 1.71S61.68 87 60.73 87ZM73.4 87c-.95 0-1.73-.77-1.73-1.7 0-.95.78-1.72 1.73-1.72s1.73.77 1.73 1.71S74.35 87 73.4 87ZM85.5 87c-.95 0-1.73-.77-1.73-1.7 0-.95.78-1.72 1.73-1.72s1.73.77 1.73 1.71S86.45 87 85.5 87ZM98.17 87c-.95 0-1.72-.77-1.72-1.7a1.72 1.72 0 0 1 3.46 0c0 .93-.78 1.7-1.74 1.7ZM110.27 87c-.95 0-1.73-.77-1.73-1.7 0-.95.78-1.72 1.73-1.72s1.73.77 1.73 1.71-.78 1.71-1.73 1.71Z" fill="#000638"/><path fill-rule="evenodd" clip-rule="evenodd" d="M43 158.35a19.35 19.35 0 1 0 38.7 0 19.35 19.35 0 0 0-38.7 0Zm28.7 0a9.35 9.35 0 1 1-18.7 0 9.35 9.35 0 0 1 18.7 0ZM19 85.5h-6.5V79h-6v6.5H0v6h6.5V98h6v-6.5H19v-6Z" fill="#007BFF"/></svg>
